X:285
T:Reflection Reel
M:4/4
L:1/8
R:reel
C:Timothy Blair
K:Em
c|B E3 G E3|D3 F AcBA|B E3 d F3|A3 B cdcA|
Be E3 D F2|G3 A Befe|d3 B cBAc|BEED E3:|
B|g e3 agfa|gfeA B3 e|d A3 G3 B|cBef g3 f|
eagf gfcf|edcA B3 e|f d3 gfea|gfed e3:|
